X: 20045
T: Jimmy Giblin's
R: reel
M: 4/4
K: Dmajor
|:FA A2 d2 ef|g2 fg edBA|FA A2 defe|dBAF EFDE|
FA A2 d2 ef|gefd edBA|FA A2 defe|dBAF EF D2:|
|:fgaf d2 ef|g2 fg edBd|fgaf d2 ef|gefd edBd|
fgaf d2 ef|gefd edBA|FA A2 defe|dBAF EF D2:|

